X:110
T: HELL AUF DER WIESE FAENGT ES AN ZU SCHIESSEN
N: K2120
O: Europa, Mitteleuropa, Deutschland, Oberdiebach am Rhein
R: Kinder - Lied, Reigen, Tanz - Spiel
M: 2/4
L: 1/16
K: Eb
 | B4c2c2 | B4G4 |
B2B2c2c2 | B4G4 |
B2B2B2E2 | B4B4 |
B4B2E2 | B4B4 |
B4B2B2 | B4B2B2 |
B2B2c2c2 | B2B2G2
GG | B2B2B2c2 | B2B2G2
G2 | B2B2B2c2 | B2A2G4

@@@ Tune index: 7447
